packages/kaspersky-hexa-ui-icons/src/iconsSVGs/16/EMailConnector.svg

<svg width="16" height="16" viewBox="0 0 16 16" fill="none" xmlns="http://www.w3.org/2000/svg">
<path d="M4.44774 4.67218C4.89095 4.67218 5.25025 4.31289 5.25025 3.86968C5.25025 3.42647 4.89095 3.06718 4.44774 3.06718C4.00453 3.06718 3.64524 3.42647 3.64524 3.86968C3.64524 4.31289 4.00453 4.67218 4.44774 4.67218Z" fill="black"/>
<path d="M7.65485 3.86968C7.65485 4.31289 7.29555 4.67218 6.85234 4.67218C6.40913 4.67218 6.04984 4.31289 6.04984 3.86968C6.04984 3.42647 6.40913 3.06718 6.85234 3.06718C7.29555 3.06718 7.65485 3.42647 7.65485 3.86968Z" fill="black"/>
<path fill-rule="evenodd" clip-rule="evenodd" d="M0.953613 3.16582C0.953613 2.08887 1.82666 1.21582 2.90361 1.21582H13.1036C14.1806 1.21582 15.0536 2.08886 15.0536 3.16582V4.57434C15.0536 5.6513 14.1806 6.52434 13.1036 6.52434H2.90361C1.82666 6.52434 0.953613 5.6513 0.953613 4.57434V3.16582ZM2.90361 2.51582C2.54463 2.51582 2.25361 2.80684 2.25361 3.16582V4.57434C2.25361 4.93333 2.54463 5.22434 2.90361 5.22434H13.1036C13.4626 5.22434 13.7536 4.93333 13.7536 4.57434V3.16582C13.7536 2.80684 13.4626 2.51582 13.1036 2.51582H2.90361Z" fill="black"/>
<path d="M2.90367 7.5621C1.82672 7.5621 0.953674 8.43515 0.953674 9.5121V10.9206C0.953674 11.9976 1.82672 12.8706 2.90368 12.8706H6.04999V11.5706H2.90368C2.54469 11.5706 2.25367 11.2796 2.25367 10.9206V9.5121C2.25367 9.15312 2.54469 8.8621 2.90367 8.8621H13.1037C13.1174 8.8621 13.1311 8.86253 13.1446 8.86337H14.9432C14.6758 8.10533 13.9532 7.5621 13.1037 7.5621H2.90367Z" fill="black"/>
<path d="M4.4478 11.0185C4.89101 11.0185 5.25031 10.6592 5.25031 10.216C5.25031 9.77275 4.89101 9.41346 4.4478 9.41346C4.00459 9.41346 3.6453 9.77275 3.6453 10.216C3.6453 10.6592 4.00459 11.0185 4.4478 11.0185Z" fill="black"/>
<path fill-rule="evenodd" clip-rule="evenodd" d="M9.3001 9.79529C8.22314 9.79529 7.3501 10.6683 7.3501 11.7453V13.7001C7.3501 14.777 8.22314 15.6501 9.3001 15.6501H13.7001C14.7771 15.6501 15.6501 14.777 15.6501 13.7001V11.7453C15.6501 10.6683 14.7771 9.79529 13.7001 9.79529H9.3001ZM8.6501 12.084V13.7001C8.6501 14.0591 8.94111 14.3501 9.3001 14.3501H13.7001C14.0591 14.3501 14.3501 14.0591 14.3501 13.7001V12.0841L11.879 13.7698C11.7678 13.8495 11.6347 13.8913 11.5001 13.8914C11.3655 13.8913 11.2325 13.8495 11.1213 13.7698L8.6501 12.084ZM11.5001 12.4545L9.50757 11.0953H13.4927L11.5001 12.4545Z" fill="black"/>
</svg>

<svg xmlns="http://www.w3.org/2000/svg" width="16" height="16" fill="none" viewBox="0 0 16 16"><path fill="#000" fill-rule="evenodd" d="M.9536 3.1657c0-1.077.873-1.95 1.95-1.95h10.2c1.0769 0 1.95.873 1.95 1.95v1.4085c0 1.077-.8731 1.95-1.95 1.95h-10.2c-1.077 0-1.95-.873-1.95-1.95zm1.95-.65a.65.65 0 0 0-.65.65v1.4085c0 .359.291.65.65.65h10.2a.65.65 0 0 0 .65-.65V3.1657a.65.65 0 0 0-.65-.65zm1.544 2.1564a.8025.8025 0 1 0 0-1.605.8025.8025 0 0 0 0 1.605m3.2072-.8025a.8025.8025 0 1 1-1.605 0 .8025.8025 0 0 1 1.605 0M2.9036 7.562c-1.077 0-1.95.873-1.95 1.95v1.4085c0 1.077.873 1.95 1.95 1.95H6.05v-1.3H2.9036a.65.65 0 0 1-.65-.65V9.512a.65.65 0 0 1 .65-.65h10.2a1 1 0 0 1 .041.0013h1.7985c-.2673-.758-.99-1.3013-1.8395-1.3013zm2.3467 2.6538a.8024.8024 0 0 1-.8026.8025.8025.8025 0 1 1 0-1.605.8025.8025 0 0 1 .8026.8025M9.3 9.7952c-1.077 0-1.95.873-1.95 1.95V13.7c0 1.0769.873 1.95 1.95 1.95h4.4c1.077 0 1.95-.8731 1.95-1.95v-1.9548c0-1.077-.873-1.95-1.95-1.95zm2.2001 2.6592-1.9926-1.3592h3.9851zm-2.85-.3705V13.7c0 .359.291.65.65.65H13.7a.65.65 0 0 0 .65-.65v-1.6161l-2.4711 1.6858a.652.652 0 0 1-.7577 0z"/></svg>
